X:32
T:Unknown Glasgow Jig 4
Z:robin.beech@mcgill.ca
S:Christina Smith, Victoria Bar, Glasgow
R:jig
M:6/8
L:1/8
K:D
d3  faf | gec Ace | d3 AFA | =c3 EGA | D2g faf | gec Ace |
d3 AFA | GEA D2A :: d3 aba | gfg a2f | Adf agf | gea gfe |
Adf ecA | GAB AFG | Adf ecA | GEA D2A :: FGA =cAG | Adc d2e |
fag efd | ABG EFD | d3 afd | Adf gag | f2f ecA | GEA D2 A :|
